image/explore/icon-1.svg

<svg xmlns="http://www.w3.org/2000/svg" width="24" height="36" viewBox="0 0 24 36" fill="none"><rect x="1" y="1" width="22" height="34" rx="3" stroke="#2E2E2E" stroke-width="2"></rect><rect x="9.5" y="3.5" width="5" height="1" rx="0.5" stroke="#2E2E2E"></rect><rect x="1.5" y="26.5" width="21" height="1" rx="0.5" stroke="#2E2E2E"></rect><rect x="11" y="30" width="2" height="2" rx="1" stroke="#2E2E2E" stroke-width="2"></rect><mask id="path-5-inside-1_7745_10721" fill="white"><path fill-rule="evenodd" clip-rule="evenodd" d="M17.5433 16.993C17.8448 17.7209 18 18.5011 18 19.2891L6 19.2891C6 18.5011 6.15519 17.7209 6.45672 16.993C6.75825 16.265 7.20021 15.6036 7.75736 15.0464C8.31451 14.4893 8.97595 14.0473 9.7039 13.7458C10.4319 13.4443 11.2121 13.2891 12 13.2891C12.7879 13.2891 13.5681 13.4443 14.2961 13.7458C15.0241 14.0473 15.6855 14.4893 16.2426 15.0464C16.7998 15.6036 17.2417 16.265 17.5433 16.993ZM10.5 17.0334C10.5 17.4476 10.1642 17.7834 9.75 17.7834C9.33579 17.7834 9 17.4476 9 17.0334C9 16.6192 9.33579 16.2834 9.75 16.2834C10.1642 16.2834 10.5 16.6192 10.5 17.0334ZM15 17.0334C15 17.4476 14.6642 17.7834 14.25 17.7834C13.8358 17.7834 13.5 17.4476 13.5 17.0334C13.5 16.6192 13.8358 16.2834 14.25 16.2834C14.6642 16.2834 15 16.6192 15 17.0334Z"></path></mask><path fill-rule="evenodd" clip-rule="evenodd" d="M17.5433 16.993C17.8448 17.7209 18 18.5011 18 19.2891L6 19.2891C6 18.5011 6.15519 17.7209 6.45672 16.993C6.75825 16.265 7.20021 15.6036 7.75736 15.0464C8.31451 14.4893 8.97595 14.0473 9.7039 13.7458C10.4319 13.4443 11.2121 13.2891 12 13.2891C12.7879 13.2891 13.5681 13.4443 14.2961 13.7458C15.0241 14.0473 15.6855 14.4893 16.2426 15.0464C16.7998 15.6036 17.2417 16.265 17.5433 16.993ZM10.5 17.0334C10.5 17.4476 10.1642 17.7834 9.75 17.7834C9.33579 17.7834 9 17.4476 9 17.0334C9 16.6192 9.33579 16.2834 9.75 16.2834C10.1642 16.2834 10.5 16.6192 10.5 17.0334ZM15 17.0334C15 17.4476 14.6642 17.7834 14.25 17.7834C13.8358 17.7834 13.5 17.4476 13.5 17.0334C13.5 16.6192 13.8358 16.2834 14.25 16.2834C14.6642 16.2834 15 16.6192 15 17.0334Z" fill="#C63031"></path><path d="M18 19.2891V21.2891H20V19.2891H18ZM17.5433 16.993L15.6955 17.7583L15.6955 17.7583L17.5433 16.993ZM6 19.2891H4V21.2891H6L6 19.2891ZM6.45672 16.993L4.60896 16.2276V16.2276L6.45672 16.993ZM7.75736 15.0464L6.34315 13.6322L6.34315 13.6322L7.75736 15.0464ZM9.7039 13.7458L10.4693 15.5935H10.4693L9.7039 13.7458ZM14.2961 13.7458L15.0615 11.898L15.0615 11.898L14.2961 13.7458ZM16.2426 15.0464L17.6569 13.6322L17.6569 13.6322L16.2426 15.0464ZM20 19.2891C20 18.2385 19.7931 17.1982 19.391 16.2276L15.6955 17.7583C15.8965 18.2436 16 18.7638 16 19.2891H20ZM6 21.2891L18 21.2891V17.2891L6 17.2891L6 21.2891ZM4.60896 16.2276C4.20693 17.1982 4 18.2385 4 19.2891H8C8 18.7638 8.10346 18.2436 8.30448 17.7583L4.60896 16.2276ZM6.34315 13.6322C5.60028 14.3751 5.011 15.257 4.60896 16.2276L8.30448 17.7583C8.5055 17.273 8.80014 16.8321 9.17157 16.4606L6.34315 13.6322ZM8.93853 11.898C7.96793 12.3001 7.08601 12.8893 6.34315 13.6322L9.17157 16.4606C9.54301 16.0892 9.98396 15.7946 10.4693 15.5935L8.93853 11.898ZM12 11.2891C10.9494 11.2891 9.90914 11.496 8.93853 11.898L10.4693 15.5935C10.9546 15.3925 11.4747 15.2891 12 15.2891V11.2891ZM15.0615 11.898C14.0909 11.496 13.0506 11.2891 12 11.2891V15.2891C12.5253 15.2891 13.0454 15.3925 13.5307 15.5935L15.0615 11.898ZM17.6569 13.6322C16.914 12.8893 16.0321 12.3001 15.0615 11.898L13.5307 15.5935C14.016 15.7946 14.457 16.0892 14.8284 16.4606L17.6569 13.6322ZM19.391 16.2276C18.989 15.257 18.3997 14.3751 17.6569 13.6322L14.8284 16.4606C15.1999 16.8321 15.4945 17.273 15.6955 17.7583L19.391 16.2276ZM9.75 19.7834C11.2688 19.7834 12.5 18.5522 12.5 17.0334H8.5C8.5 16.343 9.05964 15.7834 9.75 15.7834V19.7834ZM7 17.0334C7 18.5522 8.23122 19.7834 9.75 19.7834V15.7834C10.4404 15.7834 11 16.343 11 17.0334H7ZM9.75 14.2834C8.23122 14.2834 7 15.5146 7 17.0334H11C11 17.7237 10.4404 18.2834 9.75 18.2834V14.2834ZM12.5 17.0334C12.5 15.5146 11.2688 14.2834 9.75 14.2834V18.2834C9.05964 18.2834 8.5 17.7237 8.5 17.0334H12.5ZM14.25 19.7834C15.7688 19.7834 17 18.5522 17 17.0334H13C13 16.343 13.5596 15.7834 14.25 15.7834V19.7834ZM11.5 17.0334C11.5 18.5522 12.7312 19.7834 14.25 19.7834V15.7834C14.9404 15.7834 15.5 16.343 15.5 17.0334H11.5ZM14.25 14.2834C12.7312 14.2834 11.5 15.5146 11.5 17.0334H15.5C15.5 17.7237 14.9404 18.2834 14.25 18.2834V14.2834ZM17 17.0334C17 15.5146 15.7688 14.2834 14.25 14.2834V18.2834C13.5596 18.2834 13 17.7237 13 17.0334H17Z" fill="#C63031" mask="url(#path-5-inside-1_7745_10721)"></path><path fill-rule="evenodd" clip-rule="evenodd" d="M8.10966 12.4392C8.43311 12.1805 8.90508 12.2329 9.16383 12.5564L11.0379 14.899C11.2967 15.2224 11.2442 15.6944 10.9208 15.9531C10.5973 16.2119 10.1254 16.1595 9.86662 15.836L7.99253 13.4934C7.73377 13.17 7.78621 12.698 8.10966 12.4392Z" fill="#C63031"></path><path fill-rule="evenodd" clip-rule="evenodd" d="M16.07 12.4392C15.7466 12.1805 15.2746 12.2329 15.0159 12.5564L13.1418 14.899C12.883 15.2224 12.9355 15.6944 13.2589 15.9531C13.5823 16.2119 14.0543 16.1595 14.3131 15.836L16.1872 13.4934C16.4459 13.17 16.3935 12.698 16.07 12.4392Z" fill="#C63031"></path></svg>

<svg xmlns="http://www.w3.org/2000/svg" width="24" height="36" fill="none"><rect x="1" y="1" width="22" height="34" rx="3" stroke="#2E2E2E" stroke-width="2"/><rect x="9.5" y="3.5" width="5" height="1" rx=".5" stroke="#2E2E2E"/><rect x="1.5" y="26.5" width="21" height="1" rx=".5" stroke="#2E2E2E"/><rect x="11" y="30" width="2" height="2" rx="1" stroke="#2E2E2E" stroke-width="2"/><mask id="a" fill="#fff"><path fill-rule="evenodd" clip-rule="evenodd" d="M17.543 16.993A6 6 0 0 1 18 19.289H6a6 6 0 0 1 11.543-2.296Zm-7.043.04a.75.75 0 1 1-1.5 0 .75.75 0 0 1 1.5 0Zm4.5 0a.75.75 0 1 1-1.5 0 .75.75 0 0 1 1.5 0Z"/></mask><path fill-rule="evenodd" clip-rule="evenodd" d="M17.543 16.993A6 6 0 0 1 18 19.289H6a6 6 0 0 1 11.543-2.296Zm-7.043.04a.75.75 0 1 1-1.5 0 .75.75 0 0 1 1.5 0Zm4.5 0a.75.75 0 1 1-1.5 0 .75.75 0 0 1 1.5 0Z" fill="#C63031"/><path d="M18 19.29v2h2v-2h-2Zm-.457-2.297-1.848.765 1.848-.765ZM6 19.289H4v2h2v-2Zm.457-2.296-1.848-.765 1.848.765Zm1.3-1.947-1.414-1.414 1.414 1.414Zm1.947-1.3.765 1.848-.765-1.848Zm4.592 0 .766-1.848-.766 1.848Zm1.947 1.3 1.414-1.414-1.414 1.414ZM20 19.29c0-1.05-.207-2.09-.609-3.061l-3.695 1.53A4 4 0 0 1 16 19.29h4Zm-14 2h12v-4H6v4Zm-1.391-5.061A8 8 0 0 0 4 19.289h4a4 4 0 0 1 .304-1.53L4.61 16.227Zm1.734-2.596a8 8 0 0 0-1.734 2.596l3.695 1.53a4 4 0 0 1 .868-1.297l-2.829-2.829Zm2.596-1.734a8 8 0 0 0-2.596 1.734l2.829 2.829a4.002 4.002 0 0 1 1.297-.867l-1.53-3.696ZM12 11.289a8 8 0 0 0-3.061.609l1.53 3.696A4 4 0 0 1 12 15.289v-4Zm3.062.609A8 8 0 0 0 12 11.289v4a4 4 0 0 1 1.53.305l1.532-3.696Zm2.595 1.734a8.001 8.001 0 0 0-2.595-1.734l-1.531 3.696c.485.2.926.495 1.297.867l2.829-2.829Zm1.734 2.596a8 8 0 0 0-1.734-2.596l-2.829 2.829a4 4 0 0 1 .867 1.297l3.696-1.53ZM9.75 19.783a2.75 2.75 0 0 0 2.75-2.75h-4c0-.69.56-1.25 1.25-1.25v4ZM7 17.033a2.75 2.75 0 0 0 2.75 2.75v-4c.69 0 1.25.56 1.25 1.25H7Zm2.75-2.75A2.75 2.75 0 0 0 7 17.033h4c0 .69-.56 1.25-1.25 1.25v-4Zm2.75 2.75a2.75 2.75 0 0 0-2.75-2.75v4c-.69 0-1.25-.56-1.25-1.25h4Zm1.75 2.75a2.75 2.75 0 0 0 2.75-2.75h-4c0-.69.56-1.25 1.25-1.25v4Zm-2.75-2.75a2.75 2.75 0 0 0 2.75 2.75v-4c.69 0 1.25.56 1.25 1.25h-4Zm2.75-2.75a2.75 2.75 0 0 0-2.75 2.75h4c0 .69-.56 1.25-1.25 1.25v-4Zm2.75 2.75a2.75 2.75 0 0 0-2.75-2.75v4c-.69 0-1.25-.56-1.25-1.25h4Z" fill="#C63031" mask="url(#a)"/><path fill-rule="evenodd" clip-rule="evenodd" d="M8.11 12.44a.75.75 0 0 1 1.054.116l1.874 2.343a.75.75 0 1 1-1.171.937l-1.874-2.343a.75.75 0 0 1 .117-1.054ZM16.07 12.44a.75.75 0 0 0-1.054.116L13.142 14.9a.75.75 0 1 0 1.171.937l1.874-2.343a.75.75 0 0 0-.117-1.054Z" fill="#C63031"/></svg>
